!!!OTL-incipit: ES KUMMA SECHS BOLLACHA
!!!ARE: Europa, Mitteleuropa, Deutschland, Kuhlaendchen
!!!SCT: Z0244
!!!YEM: Copyright 1995, estate of Helmut Schaffrath.
**kern	**text
*ICvox	*
*M2/4	*
*k[f#]	*
*G:	*
!LO:TX:a:t=Aus dem Kuhländchen.	!
{8g	Es
=1	=1
8dd	kum-
8dd	-ma
8ee	ſechs
8ee	Bol-
=2	=2
4dd	-la-
8b}	-cha,
{8e	ſie
=3	=3
16dd	woll-
16dd	-ta
8dd	das
16ee	Kindla
16ee	.
8ee	an-
=4	=4
4dd	-bat-
8b}	-ta.
=|:	=|:
{8dd	Der
=5	=5
16dd	er-
16dd	-ſte
8cc	hat
8a	ei-
8b/	-ne
=6	=6
16ccL	Pfei-
16b	.
8ddJ	.
4b}	-fe,
=7	=7
{8dd	ſi
8cc	fa
8a	ſi
8b/	fa
=8	=8
8ccL	Pfei-
8ddJ	.
8b}	-fe.
==	==
!!!AGN: Kinder - , Wiegen - Lied
!! Die letzten vier Takte werden zum Text fuenf mal wiederholt. 1 Strophe
!!!ONB: ESAC (Essen Associative Code) Database: ZUCCAL
!!!AMT: simple duple
!!!AIN: vox
!!!EED: Helmut Schaffrath
!!!EEV: 1.0
!!!GTL: III. Soldaten-, Jaeger-, Schiffer-, Fuhrmanns- und Handwerks-Lieder.
!!!URL-scan: https://www.digitale-sammlungen.de/de/view/bsb11160571?page=454
!!!ENC: Anna Maria Matuszewska
!!!EEV: 2025/01/29
*-	*-
